icon/cg/arrows-scroll-h.svg

<svg viewBox="0 0 24 24" fill="none" xmlns="http://www.w3.org/2000/svg" height="1em" width="1em">
  <path d="M15.3052 12L18.1299 9.17526L16.7157 7.76105L13.891 10.5858L13.8873 10.5821L12.4731 11.9963L12.4768 12L12.4731 12.0037L13.8873 13.4179L13.891 13.4142L16.7157 16.239L18.1299 14.8248L15.3052 12Z" fill="currentColor"/>
  <path d="M10.1091 10.5858L10.1128 10.5821L11.527 11.9963L11.5233 12L11.527 12.0037L10.1128 13.4179L10.1091 13.4142L7.28433 16.239L5.87012 14.8248L8.69487 12L5.87012 9.17526L7.28433 7.76105L10.1091 10.5858Z" fill="currentColor"/>
</svg>

<svg width="24" height="24" fill="none" xmlns="http://www.w3.org/2000/svg"><path d="m15.305 12 2.825-2.825-1.414-1.414-2.825 2.825-.004-.004-1.414 1.414.004.004-.004.004 1.414 1.414.004-.004 2.825 2.825 1.414-1.414L15.305 12ZM10.11 10.586l.003-.004 1.414 1.414-.004.004.004.004-1.414 1.414-.004-.004-2.825 2.825-1.414-1.414L8.695 12 5.87 9.175l1.414-1.414 2.825 2.825Z" fill="currentColor"/></svg>
